images/company_logo/logo1.svg

<svg width="45" height="50" viewBox="0 0 45 50" fill="none" xmlns="http://www.w3.org/2000/svg">
<path d="M6 0L13.3076 6.91796H33.6924V26.2158L41 33.1338V0H6Z" fill="#AFB1B8"/>
<path d="M0 6.62646V38.8137H34V26.0195L13.5231 6.63443L0 6.62646ZM27.5231 34.1055H5.38008V12.4579H6.9453V32.6397H27.5231V34.1055Z" fill="#AFB1B8"/>
<path d="M9.81299 44.7007L10.5527 43.0991H11.3535L10.1865 45.3647V46.6538H9.44189V45.3647L8.2749 43.0991H9.07812L9.81299 44.7007ZM13.3188 45.9214H12.0347L11.7905 46.6538H11.0117L12.335 43.0991H13.0137L14.3442 46.6538H13.5654L13.3188 45.9214ZM12.2324 45.3281H13.1211L12.6743 43.9976L12.2324 45.3281ZM15.7773 45.6968C15.7773 45.5324 15.8229 45.3802 15.9141 45.2402C16.0068 45.1003 16.1761 44.9448 16.4219 44.7739C16.3161 44.6323 16.2331 44.4997 16.1729 44.376C16.1126 44.2507 16.0825 44.1204 16.0825 43.9854C16.0825 43.7087 16.1696 43.484 16.3438 43.3115C16.5195 43.1374 16.7555 43.0503 17.0518 43.0503C17.3171 43.0503 17.5343 43.1292 17.7036 43.2871C17.8745 43.445 17.96 43.6419 17.96 43.8779C17.96 44.1611 17.8167 44.411 17.5303 44.6274L17.2568 44.8252L17.8696 45.5381C17.9657 45.3493 18.0137 45.141 18.0137 44.9131H18.6143C18.6143 45.3753 18.5076 45.7497 18.2944 46.0361L18.8267 46.6538H18.0259L17.8428 46.4438C17.5807 46.6164 17.2796 46.7026 16.9395 46.7026C16.5879 46.7026 16.3063 46.6107 16.0947 46.4268C15.8831 46.2412 15.7773 45.9979 15.7773 45.6968ZM16.9736 46.1362C17.1429 46.1362 17.3032 46.089 17.4546 45.9946L16.7539 45.1841L16.7026 45.2207C16.5578 45.3444 16.4854 45.4901 16.4854 45.6577C16.4854 45.7993 16.5301 45.9149 16.6196 46.0044C16.7108 46.0923 16.8288 46.1362 16.9736 46.1362ZM16.7148 43.9756C16.7148 44.0977 16.7865 44.2515 16.9297 44.437L17.1177 44.3125C17.2137 44.2507 17.2796 44.1904 17.3154 44.1318C17.3529 44.0732 17.3716 44.0033 17.3716 43.9219C17.3716 43.8405 17.3415 43.7697 17.2812 43.7095C17.221 43.6493 17.1437 43.6191 17.0493 43.6191C16.9484 43.6191 16.867 43.6517 16.8052 43.7168C16.745 43.7819 16.7148 43.8682 16.7148 43.9756ZM23.2383 45.4697C23.2106 45.8522 23.069 46.1533 22.8135 46.373C22.5596 46.5928 22.2243 46.7026 21.8076 46.7026C21.3519 46.7026 20.993 46.5496 20.731 46.2437C20.4705 45.936 20.3403 45.5145 20.3403 44.979V44.7617C20.3403 44.4199 20.4006 44.1188 20.521 43.8584C20.6414 43.598 20.8132 43.3986 21.0361 43.2603C21.2607 43.1203 21.5212 43.0503 21.8174 43.0503C22.2275 43.0503 22.5579 43.1602 22.8086 43.3799C23.0592 43.5996 23.2041 43.908 23.2432 44.3052H22.5107C22.4928 44.0757 22.4285 43.9097 22.3179 43.8071C22.2088 43.703 22.042 43.6509 21.8174 43.6509C21.5732 43.6509 21.3901 43.7388 21.2681 43.9146C21.1476 44.0887 21.0858 44.3597 21.0825 44.7275V44.9961C21.0825 45.3802 21.1403 45.661 21.2559 45.8384C21.373 46.0158 21.557 46.1045 21.8076 46.1045C22.0339 46.1045 22.2023 46.0532 22.313 45.9507C22.4253 45.8465 22.4896 45.6862 22.5059 45.4697H23.2383ZM26.6392 44.957C26.6392 45.307 26.5773 45.6138 26.4536 45.8774C26.3299 46.1411 26.1525 46.3446 25.9214 46.4878C25.6919 46.631 25.4282 46.7026 25.1304 46.7026C24.8358 46.7026 24.5729 46.6318 24.3418 46.4902C24.1107 46.3486 23.9316 46.1468 23.8047 45.8848C23.6777 45.6211 23.6134 45.3184 23.6118 44.9766V44.8008C23.6118 44.4508 23.6745 44.1432 23.7998 43.8779C23.9268 43.611 24.105 43.4067 24.3345 43.2651C24.5656 43.1219 24.8293 43.0503 25.1255 43.0503C25.4217 43.0503 25.6846 43.1219 25.9141 43.2651C26.1452 43.4067 26.3234 43.611 26.4487 43.8779C26.5757 44.1432 26.6392 44.45 26.6392 44.7983V44.957ZM25.897 44.7959C25.897 44.4232 25.8302 44.14 25.6968 43.9463C25.5633 43.7526 25.3729 43.6558 25.1255 43.6558C24.8797 43.6558 24.6901 43.7518 24.5566 43.9438C24.4232 44.1343 24.3556 44.4142 24.354 44.7837V44.957C24.354 45.32 24.4207 45.6016 24.5542 45.8018C24.6877 46.002 24.8797 46.1021 25.1304 46.1021C25.3761 46.1021 25.5649 46.006 25.6968 45.814C25.8286 45.6203 25.8953 45.3387 25.897 44.9692V44.7959Z" fill="#AFB1B8"/>
</svg>

<svg width="45" height="50" fill="none" xmlns="http://www.w3.org/2000/svg"><path d="M6 0l7.3 7h20.4v19.2l7.3 7V0H6z" fill="#AFB1B8"/><path d="M0 6.6v32.2h34V26L13.5 6.6H0zm27.5 27.5H5.4V12.5h1.5v20.1h20.6v1.5zM9.8 44.7l.8-1.6h.8l-1.2 2.3v1.3h-.8v-1.3L8.3 43H9l.7 1.6zm3.5 1.2H12l-.2.8H11l1.3-3.6h.7l1.3 3.6h-.7l-.3-.8zm-1-.6h.8l-.4-1.3-.5 1.3zm3.5.4l.1-.5.5-.4-.2-.4-.1-.4c0-.3 0-.5.2-.7.2-.2.5-.2.8-.2.2 0 .4 0 .6.2.2.1.3.3.3.6s-.2.5-.5.7l-.2.2.6.7.1-.6h.6c0 .5 0 .8-.3 1.1l.5.7H18l-.2-.3c-.2.2-.5.3-.9.3-.3 0-.6 0-.8-.3a1 1 0 01-.3-.7zm1.2.4l.5-.1-.7-.8h-.1l-.2.5.1.3.4.1zm-.3-2.1c0 .1 0 .3.2.4h.2l.2-.3V44v-.2H17h-.2v.3zm6.5 1.5c0 .4-.1.7-.4.9-.2.2-.6.3-1 .3s-.8-.2-1-.5c-.3-.3-.5-.7-.5-1.2v-.2l.2-1a1.3 1.3 0 011.3-.7c.4 0 .8 0 1 .3.3.2.4.5.4 1h-.7c0-.3 0-.5-.2-.6l-.5-.1c-.2 0-.4 0-.5.2-.2.2-.2.5-.2.8v.3c0 .4 0 .7.2.8 0 .2.3.3.5.3l.5-.1.2-.5h.7zm3.4-.5l-.1.9a1.4 1.4 0 01-1.4.8c-.3 0-.5 0-.8-.2l-.5-.6a2 2 0 01-.2-1v-.1c0-.3 0-.7.2-1a1.4 1.4 0 011.3-.7c.3 0 .6 0 .8.2.2.1.4.3.5.6.2.2.2.6.2.9v.2zm-.7-.2c0-.4 0-.7-.2-.9a.7.7 0 00-.6-.2c-.2 0-.4 0-.5.2-.2.2-.2.5-.2.9v.2c0 .3 0 .6.2.8 0 .2.3.3.5.3.3 0 .5 0 .6-.3l.2-.8v-.2z" fill="#AFB1B8"/></svg>
